src/icons/IconBag/IconBag_size_xs.svg

<svg viewBox="0 0 12 12" fill="none" xmlns="http://www.w3.org/2000/svg">
  <path
    fill-rule="evenodd"
    clip-rule="evenodd"
    d="M3 2C3 1.44772 3.44772 1 4 1H8C8.55228 1 9 1.44772 9 2V3H11C11.5523 3 12 3.44772 12 4V4.5L6.46882 5.93C6.15908 6.01849 5.84095 6.01849 5.53121 5.93L0 4.5V4C0 3.44772 0.447715 3 1 3H3V2ZM4 3H8V2H4V3Z"
  />
  <path
    d="M6.65634 6.9L12 5.5V10C12 10.5523 11.5523 11 11 11H1C0.447716 11 0 10.5523 0 10V5.5L5.34368 6.9C5.77732 7.05623 6.2227 7.05623 6.65634 6.9Z"
  />
</svg>

<svg viewBox="0 0 12 12" xmlns="http://www.w3.org/2000/svg">
  <path
    fill-rule="evenodd"
    clip-rule="evenodd"
    d="M3 2a1 1 0 011-1h4a1 1 0 011 1v1h2a1 1 0 011 1v.5L6.469 5.93c-.31.088-.628.088-.938 0L0 4.5V4a1 1 0 011-1h2V2zm1 1h4V2H4v1z"
  />
  <path
    d="M6.656 6.9L12 5.5V10a1 1 0 01-1 1H1a1 1 0 01-1-1V5.5l5.344 1.4c.433.156.879.156 1.312 0z"
  />
</svg>
